icons/mock.svg

<svg xmlns="http://www.w3.org/2000/svg" fill-rule="evenodd" stroke-linejoin="round" stroke-miterlimit="1.414" clip-rule="evenodd" viewBox="0 0 24 24"><path fill="#8d6e63" d="M12 3C9.31 3 7.41 4.22 7.41 4.22L6 9h12l-1.41-4.78S14.69 3 12 3m0 8c-2.73 0-6.61.54-6.87.59-1.04.28-1.88.56-2.54.82C1.58 12.75 1 13 1 13h22s-.58-.25-1.59-.59c-.66-.26-1.52-.54-2.57-.82 0 0-4.02-.59-6.84-.59m-4.5 3A3.5 3.5 0 0 0 4 17.5 3.5 3.5 0 0 0 7.5 21a3.5 3.5 0 0 0 3.5-3.5c0-.16 0-.32-.03-.47.32-.07.66-.13 1.03-.12.37 0 .71.05 1.03.12-.03.15-.03.31-.03.47a3.5 3.5 0 0 0 3.5 3.5 3.5 3.5 0 0 0 3.5-3.5 3.5 3.5 0 0 0-3.5-3.5c-1.47 0-2.73.9-3.25 2.19-.32-.1-.7-.19-1.25-.19s-.93.09-1.25.19A3.5 3.5 0 0 0 7.5 14m0 1a2.5 2.5 0 0 1 2.5 2.5A2.5 2.5 0 0 1 7.5 20 2.5 2.5 0 0 1 5 17.5 2.5 2.5 0 0 1 7.5 15m9 0a2.5 2.5 0 0 1 2.5 2.5 2.5 2.5 0 0 1-2.5 2.5 2.5 2.5 0 0 1-2.5-2.5 2.5 2.5 0 0 1 2.5-2.5" data-iconColor="Spy/Mock/Stub"/></svg>

<!--
  - The MIT License (MIT)
  -
  - Copyright (c) 2015-2024 Elior "Mallowigi" Boukhobza
  -
  - Permission is hereby granted, free of charge, to any person obtaining a copy
  - of this software and associated documentation files (the "Software"), to deal
  - in the Software without restriction, including without limitation the rights
  - to use, copy, modify, merge, publish, distribute, sublicense, and/or sell
  - copies of the Software, and to permit persons to whom the Software is
  - furnished to do so, subject to the following conditions:
  -
  - The above copyright notice and this permission notice shall be included in all
  - copies or substantial portions of the Software.
  -
  - THE SOFTWARE IS PROVIDED "AS IS", WITHOUT WARRANTY OF ANY KIND, EXPRESS OR
  - IMPLIED, INCLUDING BUT NOT LIMITED TO THE WARRANTIES OF MERCHANTABILITY,
  - FITNESS FOR A PARTICULAR PURPOSE AND NONINFRINGEMENT. IN NO EVENT SHALL THE
  - AUTHORS OR COPYRIGHT HOLDERS BE LIABLE FOR ANY CLAIM, DAMAGES OR OTHER
  - LIABILITY, WHETHER IN AN ACTION OF CONTRACT, TORT OR OTHERWISE, ARISING FROM,
  - OUT OF OR IN CONNECTION WITH THE SOFTWARE OR THE USE OR OTHER DEALINGS IN THE
  - SOFTWARE.
  -
  -->

<svg  clip-rule="evenodd" fill-rule="evenodd" stroke-linejoin="round" stroke-miterlimit="1.414" version="1.1"
     width="16px" height="16px" viewBox="0 0 24 24" xmlns="http://www.w3.org/2000/svg">
  <path fill="#8d6e63" data-iconColor="Spy/Mock/Stub"
        d="M12,3C9.31,3 7.41,4.22 7.41,4.22L6,9H18L16.59,4.22C16.59,4.22 14.69,3 12,3M12,11C9.27,11 5.39,11.54 5.13,11.59C4.09,11.87 3.25,12.15 2.59,12.41C1.58,12.75 1,13 1,13H23C23,13 22.42,12.75 21.41,12.41C20.75,12.15 19.89,11.87 18.84,11.59C18.84,11.59 14.82,11 12,11M7.5,14A3.5,3.5 0 0,0 4,17.5A3.5,3.5 0 0,0 7.5,21A3.5,3.5 0 0,0 11,17.5C11,17.34 11,17.18 10.97,17.03C11.29,16.96 11.63,16.9 12,16.91C12.37,16.91 12.71,16.96 13.03,17.03C13,17.18 13,17.34 13,17.5A3.5,3.5 0 0,0 16.5,21A3.5,3.5 0 0,0 20,17.5A3.5,3.5 0 0,0 16.5,14C15.03,14 13.77,14.9 13.25,16.19C12.93,16.09 12.55,16 12,16C11.45,16 11.07,16.09 10.75,16.19C10.23,14.9 8.97,14 7.5,14M7.5,15A2.5,2.5 0 0,1 10,17.5A2.5,2.5 0 0,1 7.5,20A2.5,2.5 0 0,1 5,17.5A2.5,2.5 0 0,1 7.5,15M16.5,15A2.5,2.5 0 0,1 19,17.5A2.5,2.5 0 0,1 16.5,20A2.5,2.5 0 0,1 14,17.5A2.5,2.5 0 0,1 16.5,15Z"/>
</svg>
